**kern	**kern	**dynam
*part1	*part1	*part1
*staff2	*staff1	*
*I"Piano	*	*
*clefF4	*clefG2	*
*k[f#c#g#]	*k[f#c#g#]	*
=1	=1	=1
2.r	2A 2e	.
.	4c# 4e	.
=	=	=
2.r	2A 2e	.
.	4c# 4e	.
=	=	=
[2.GGG#X	2G#X 2e	pp
.	4c# 4e	.
=	=	=
2.GGG#]	2G# 2e	.
.	4c# 4e	.
=	=	=
[2.AAA	2F#< 2d<	.
.	4A< 4d<	.
=	=	=
2.AAA]	2F#< 2d<	.
.	4A< 4d<	.
=	=	=
4r	4r	.
4r	4r	.
*^	*	*
(4DDD 4DD	4A	(4d 4f#	.
=	=	=	=
2EEE 2EE	2Gn	2c# 2e	.
4FFF#) 4FF#	4A	4d)	.
*v	*v	*	*
=	=	=
*-	*-	*-
!!!system-decoration: {(s1,s2)}
!!!RDF**kern: < = below
